app/result/img/star.svg

<svg width="14" height="12" viewBox="0 0 14 12" fill="none" xmlns="http://www.w3.org/2000/svg">
<path d="M13.1225 4.27174C12.9764 4.11781 12.7768 4.0177 12.5593 3.98927V3.98885L9.16194 3.54829L7.81753 0.532645C7.62123 0.0912375 7.08091 -0.1172 6.61073 0.0670818C6.38657 0.154941 6.20835 0.322224 6.11478 0.532645L4.77038 3.54829L1.37306 3.98885C0.866902 4.05499 0.51369 4.49383 0.584145 4.96899C0.614424 5.17318 0.72107 5.3606 0.885038 5.49775L3.44467 7.64046L2.91875 11.0028C2.86177 11.3442 3.02882 11.6844 3.34239 11.8654C3.65155 12.051 4.04922 12.0441 4.3508 11.8478L6.96613 10.1782L9.58146 11.8496C10.0035 12.1184 10.5778 12.0153 10.8642 11.6191C10.9944 11.4391 11.0477 11.2197 11.0135 11.0045L10.4876 7.64086L13.0473 5.49815C13.4288 5.17901 13.4625 4.6299 13.1225 4.27174ZM9.69605 7.15661C9.58154 7.25266 9.52614 7.39629 9.54858 7.53889L10.0964 11.1386L7.22407 9.30534C7.06922 9.20656 6.8658 9.20656 6.71095 9.30534L3.82172 11.1275L4.38368 7.53718C4.40551 7.39516 4.35014 7.25231 4.23621 7.15664L1.49718 4.83907L5.15288 4.36552C5.31295 4.34481 5.44939 4.2462 5.51169 4.10626L6.97159 0.857065C6.97325 0.858973 6.97448 0.861158 6.97525 0.863493L8.4201 4.10455C8.48239 4.24449 8.61886 4.3431 8.7789 4.36381L12.4392 4.85835L9.69605 7.15661Z" fill="#FEB300"/>
</svg>

<svg width="14" height="12" viewBox="0 0 14 12" fill="none" xmlns="http://www.w3.org/2000/svg"><path d="M13.123 4.272a.945.945 0 0 0-.564-.283l-3.397-.44L7.818.532C7.62.09 7.08-.117 6.61.067a.896.896 0 0 0-.496.466L4.77 3.548l-3.397.44c-.506.067-.86.506-.789.981.03.204.137.392.301.529l2.56 2.142-.526 3.363a.839.839 0 0 0 .423.862.96.96 0 0 0 1.009-.017l2.615-1.67 2.615 1.672c.423.268.997.165 1.283-.23.13-.18.184-.4.15-.615l-.526-3.364 2.56-2.143a.832.832 0 0 0 .075-1.226zM9.696 7.157a.414.414 0 0 0-.147.382l.547 3.6-2.872-1.834a.481.481 0 0 0-.513 0l-2.89 1.822.563-3.59a.414.414 0 0 0-.148-.38L1.497 4.839l3.656-.473c.16-.021.296-.12.359-.26L6.972.857a.019.019 0 0 1 .003.006L8.42 4.105c.062.14.199.238.359.259l3.66.494-2.743 2.299z" fill="#FEB300"/></svg>
